icons/vip-line.svg

<svg xmlns="http://www.w3.org/2000/svg" width="24" height="24" fill="none"><g clip-path="url(#a)"><g><path fill="#121212" d="M2 19H22V21H2V19ZM11 8H13V16H11V8ZM7.965 8H10.09L7.104 15.964H5.104L2.118 8H4.243L6.104 13.113L7.965 8ZM17 14V16H15V8H19C19.7956 8 20.5587 8.31607 21.1213 8.87868C21.6839 9.44129 22 10.2044 22 11C22 11.7956 21.6839 12.5587 21.1213 13.1213C20.5587 13.6839 19.7956 14 19 14H17ZM17 10V12H19C19.2652 12 19.5196 11.8946 19.7071 11.7071C19.8946 11.5196 20 11.2652 20 11C20 10.7348 19.8946 10.4804 19.7071 10.2929C19.5196 10.1054 19.2652 10 19 10H17ZM2 3H22V5H2V3Z"/></g></g><defs><clipPath id="a"><rect width="24" height="24" fill="white"/></clipPath></defs></svg>

<svg width="24" height="24" fill="none" xmlns="http://www.w3.org/2000/svg"><g clip-path="url(#a)"><path d="M2 19h20v2H2v-2Zm9-11h2v8h-2V8ZM7.965 8h2.125l-2.986 7.964h-2L2.118 8h2.125l1.861 5.113L7.965 8ZM17 14v2h-2V8h4a3 3 0 0 1 0 6h-2Zm0-4v2h2a1 1 0 0 0 0-2h-2ZM2 3h20v2H2V3Z" /></g><defs><clipPath id="a"><path fill="#fff" d="M0 0h24v24H0z"/></clipPath></defs></svg>
